**kern	**kern	**dynam
*part1	*part1	*part1
*staff2	*staff1	*
*I"Piano	*	*
*clefF4	*clefG2	*
*k[b-e-a-]	*k[b-e-a-]	*
=1	=1	=1
*^	*	*
4.A-X)	4.BB-_	4.B-_ 4.d] 4.f#X	.
=	=	=	=
!	!	!LO:TX:a:i:t=ritard.	!
4.G	4.BB-]	4.B-] 4.e- 4.g	<
=	=	=	=
4E-	[4.BB-	4B- 4g 4b-	.
8G	.	8e- 8g	[ >
=	=	=	=
4.B-	4.BB-]	4.d 4.f	.
=	=	=	=
[4.B-	4.BB-	4.A-X) 4.d 4.f#X	]
=	=	=	=
4.B-]	4.E-	4.G 4.e- 4.g	.
*v	*v	*	*
=	=	=
4.E- 4.G	4.c#X 4.an	.
=	=	=
4.D 4.F#X	4.d 4.an	.
=	=	=
4.DD [4.D	4.cn 4.f#X 4.an	.
=	=	=
4.GG 4.D]	4.B- 4.g 4.b-	.
=	=	=
(4.GG [4.E-	((4.d-X^ [4.e- [4.b- 4.dd-X	.
=	=	=
4.AA-) 4.E-]	4.c)) 4.e-] 4.b-] 4.cc	.
=	=	=
*-	*-	*-
!!!system-decoration: {(s1,s2)}
